X: 3
T: Crucaharan Cross, The
Z: reedy grins
S: https://thesession.org/tunes/3533#setting9885
R: polka
M: 2/4
L: 1/8
K: Amaj
c/B/ | Ac Bc | A>B Af | ec c/B/A/B/ | cB Bc/B/ |
Ac Bc | A2 Af | ec Bc/B/ | A2 A :|
e | ~f2 fa | A2 Af | ec c/B/A/B/ | cB Be |
f2 fa | A2 Af | ec Bc/B/ | A2 A :|
